X: 117
T:Good Tune,A. JaW.117
M:3/4
Q:1/4=120
C:" M Caiuis()"
S:James Winder Ms, Lancashire, 1835-41
R:Waltz
O:England
A:Wyresdale,Lancashire
H:1/8
Z:vmp.Chris Partington, Aug 2004
K:Eb
[G,2E2] [G,2E2] [G,2E2] |[G,2E2] [G,2E2] fg|\
(3egf (3edc (3BcA|(3BcB (3AGF (3EDC|!
[G,2E2] [G,2E2] [G,2E2] |[G,2E2] [G,2E2] fg|\
(3gag (3fgf (3efe| (3ded (3cBA (3GAF:|!
|:EB gBgB|EB gBbG|DB fBfB|DB fBaB|!
EB gBgB|EB gBbG|agfedf|d2A2:|!
|:B,2|BAFD B,2|EeBG E2|BAFD B,2|EeBG E2|!
[B6a6]|[B6g6]|fed|[G4e4]:|]
